X: 1372
T: Mini Mini Bir Nihavent Peşrevi
C: Hüseyin Sadettin Arel
O: Turkey
F: http://compmusic.upf.edu/node/140
N: nihavent--pesrev--hafif--mini_mini--huseyin_sadettin_arel
N: makam= nihavent
N: form= pesrev
N: usul= hafif = 32/4
M: 32/4
L: 1/16
K: C _B _e  
Q: 1/4=112
%%MIDI tuningsystem comma53
.G2 B c d4 d2 d2 d4  | e4 d2 c2 d2 c2 B4  | \
w:  1. HANE  |   | 
f4 e2 d2 c2 B2 c2 {e}d c  | 
w:   | 
B2 A2 B A G2 G8  | D2 G2 B4 c B A2 A4  | \
w:   |   | 
B2 c2 d4 e d c2 c4  | d2 a2 g4 f2 e2 d2 c B  | 
w:   |   | 
c2 d2 e d c2 d6 z2  | c2 d2 e4 d2 c2 d4  | \
w:   |   | 
c2 B2 A4 B2 c2 d4  | G8 d2 c2 B2 A G  | 
w:   |   | 
A2 B2 A G ^F2 G8  | d2 e ^f g4 a2 f2 g4  | \
w:   |  TESLİM  | 
a2 b2 a4 g2 a2 g4  | ^f2 g2 f4 d2 e2 f2 g2  | 
w:   |   | 
^f2 e2 f2 e2 d8  | c2 d2 e4 d2 c2 d4  | \
w:   |   | 
c2 B2 A4 B2 c2 d4  | G8 d2 c2 B2 A G  | 
w:   |   | 
A2 B2 A G ^F2 G8  | g2 g2 g4 a2 b2 a4  | \
w:   |  3. HANE  | 
g4 ^f4 e2 f2 e4  | d4 e2 ^f2 g2 a2 b2 a g  | 
w:   |   | 
^f2 e2 f g f2 g6 z2  | a2 b2 c'4 b2 a2 d'4  | \
w:   |   | 
c'4 b4 a2 g2 ^f4  | g2 a2 b4 a2 g2 ^f2 e d  | 
w:   |   | 
e2 ^f2 a g f2 g6 z2  | d2 e ^f g4 a2 f2 g4  | \
w:   |  TESLİM  | 
a2 b2 a4 g2 a2 g4  | ^f2 g2 f4 d2 e2 f2 g2  | 
w:   |   | 
^f2 e2 f2 e2 d8  | c2 d2 e4 d2 c2 d4  | \
w:   |   | 
c2 B2 A4 B2 c2 d4  | G8 d2 c2 B2 A G  | 
w:   |   | 
A2 B2 A G ^F2 G8  | A2 B2 B4 A2 B2 B4  | \
w:   |  4. HANE  | 
G4 A2 ^F2 G2 F E D4  | c4 B2 A2 B2 c2 d2 e d  | 
w:   |   | 
c2 B2 A B c2 d6 z2  | D2 E2 ^F4 E2 F2 G4  | \
w:   |   | 
^F2 G2 A4 B2 c2 d4  | e4 d2 c2 B2 A2 G2 ^F2  | 
w:   |   | 
E2 G2 ^F2 E2 D6 z2  | d2 e ^f g4 a2 f2 g4  | \
w:   |  TESLİM  | 
a2 b2 a4 g2 a2 g4  | ^f2 g2 f4 d2 e2 f2 g2  | 
w:   |   | 
^f2 e2 f2 e2 d8  | c2 d2 e4 d2 c2 d4  | \
w:   |   | 
c2 B2 A4 B2 c2 d4  | G8 d2 c2 B2 A G  | 
w:   |   | 
A2 B2 A G ^F2 G8  | |


